modules/hawcons-stroke/icons/tag.svg

<?xml version="1.0" encoding="UTF-8" standalone="no"?>
<svg width="32px" height="32px" viewBox="0 0 32 32" version="1.1" xmlns="http://www.w3.org/2000/svg" xmlns:xlink="http://www.w3.org/1999/xlink" xmlns:sketch="http://www.bohemiancoding.com/sketch/ns">
    <!-- Generator: Sketch 3.0.3 (7891) - http://www.bohemiancoding.com/sketch -->
    <title>icon 146 tag</title>
    <desc>Created with Sketch.</desc>
    <defs></defs>
    <g id="Page-1" stroke="none" stroke-width="1" fill="none" fill-rule="evenodd" sketch:type="MSPage">
        <g id="icon-146-tag" sketch:type="MSArtboardGroup" fill="#929292">
            <path d="M14,4 L5.99961498,4 C4.89525812,4 4,4.88743329 4,5.99961498 L4,14 L17.3809027,27.3809027 C18.1646418,28.1646418 19.433119,28.1668566 20.2115341,27.3884415 L27.3884415,20.2115341 C28.168017,19.4319586 28.1640508,18.1640508 27.3809027,17.3809027 L14,4 L14,4 Z M13.5,5 L6.00844055,5 C5.45149422,5 5,5.45699692 5,6.00844055 L5,13.5 L18.0998579,26.671163 C18.488383,27.0618028 19.1183535,27.0613199 19.5042948,26.672744 L26.6678854,19.4602516 C27.0550094,19.0704849 27.0531075,18.4413912 26.6620109,18.0535183 L13.5,5 L13.5,5 Z M9.5,12 C10.8807119,12 12,10.8807119 12,9.5 C12,8.11928806 10.8807119,7 9.5,7 C8.11928806,7 7,8.11928806 7,9.5 C7,10.8807119 8.11928806,12 9.5,12 L9.5,12 Z M9.5,11 C10.3284272,11 11,10.3284272 11,9.5 C11,8.67157283 10.3284272,8 9.5,8 C8.67157283,8 8,8.67157283 8,9.5 C8,10.3284272 8.67157283,11 9.5,11 L9.5,11 Z" id="tag" sketch:type="MSShapeGroup"></path>
        </g>
    </g>
</svg>

<svg width="32" height="32" viewBox="0 0 32 32" xmlns="http://www.w3.org/2000/svg"><path d="M14 4H6c-1.105 0-2 .887-2 2v8l13.38 13.38a2.003 2.003 0 0 0 2.832.008l7.176-7.176c.78-.78.776-2.048-.007-2.831L14 4zm-.5 1H6.008C5.451 5 5 5.457 5 6.008V13.5l13.1 13.171a.99.99 0 0 0 1.404.002l7.164-7.213a.994.994 0 0 0-.006-1.406L13.5 5zm-4 7a2.5 2.5 0 1 0 0-5 2.5 2.5 0 0 0 0 5zm0-1a1.5 1.5 0 1 0 0-3 1.5 1.5 0 0 0 0 3z" fill="#929292" fill-rule="evenodd"/></svg>
